src/assets/duotone/Bluetooth.svg

<svg width="24" height="24" viewBox="0 0 24 24"  xmlns="http://www.w3.org/2000/svg">
<path opacity="0.4" d="M16.1898 2H7.81976C4.17976 2 2.00977 4.17 2.00977 7.81V16.18C2.00977 19.82 4.17976 21.99 7.81976 21.99H16.1898C19.8298 21.99 21.9998 19.82 21.9998 16.18V7.81C21.9998 4.17 19.8298 2 16.1898 2Z" />
<path d="M12.7099 19.0296C12.4799 19.0296 12.3 18.9696 12.2 18.9196C11.97 18.8096 11.4299 18.4496 11.4299 17.4696V14.0497L8.50996 16.7296C8.20996 17.0096 7.72996 16.9896 7.44996 16.6796C7.16996 16.3696 7.18995 15.8996 7.49995 15.6196L11.4299 12.0197V11.9396L7.49995 8.37965C7.18995 8.09965 7.16996 7.62965 7.44996 7.31965C7.72996 7.01965 8.20996 6.98965 8.50996 7.26965L11.4299 9.94964V6.52965C11.4299 5.54965 11.97 5.18965 12.2 5.07965C12.43 4.96965 13.0499 4.78965 13.7999 5.41965L16.22 7.43965C16.55 7.70965 16.74 8.10965 16.75 8.51965C16.76 8.92965 16.5899 9.32964 16.2699 9.61964L13.66 12.0096L16.2699 14.3996C16.5799 14.6896 16.76 15.0896 16.75 15.4996C16.74 15.9096 16.55 16.2996 16.22 16.5796L13.7999 18.5997C13.3799 18.9397 12.9999 19.0296 12.7099 19.0296ZM12.9299 13.2997V17.3596L15.26 15.4097L12.9299 13.2997ZM12.9299 6.63965V10.6396L15.26 8.49965L12.9299 6.63965Z" />
</svg>

<?xml version="1.0" encoding="UTF-8"?>
<svg width="24" height="24" viewBox="0 0 24 24" xmlns="http://www.w3.org/2000/svg">
 <path d="m16.19 2h-8.37c-3.64 0-5.81 2.17-5.81 5.81v8.37c0 3.64 2.17 5.81 5.81 5.81h8.37c3.64 0 5.81-2.17 5.81-5.81v-8.37c0-3.64-2.17-5.81-5.81-5.81z" opacity=".4"/>
 <path d="m12.71 19.03c-0.23 0-0.4099-0.06-0.5099-0.11-0.23-0.11-0.7701-0.47-0.7701-1.45v-3.4199l-2.9199 2.6799c-0.3 0.28-0.78 0.26-1.06-0.05s-0.26001-0.78 0.04999-1.06l3.93-3.5999v-0.0801l-3.93-3.56c-0.31-0.28-0.32999-0.75-0.04999-1.06 0.28-0.3 0.76-0.33 1.06-0.05l2.9199 2.68v-3.42c0-0.98 0.5401-1.34 0.7701-1.45s0.8499-0.29 1.5999 0.34l2.4201 2.02c0.33 0.27 0.52 0.67 0.53 1.08s-0.1601 0.80999-0.4801 1.1l-2.6099 2.39 2.6099 2.39c0.31 0.29 0.4901 0.69 0.4801 1.1s-0.2 0.8-0.53 1.08l-2.4201 2.0201c-0.42 0.34-0.8 0.4299-1.09 0.4299zm0.22-5.7299v4.0599l2.3301-1.9499-2.3301-2.11zm0-6.66v4l2.3301-2.14-2.3301-1.86z"/>
</svg>
